svgs/solid/box-ballot.svg

<svg xmlns="http://www.w3.org/2000/svg" viewBox="0 0 576 512"><!-- Font Awesome Pro 6.0.0-alpha2 by @fontawesome - https://fontawesome.com License - https://fontawesome.com/license (Commercial License) --><path d="M0 464C0 490.51 21.49 512 48 512H528C554.51 512 576 490.51 576 464V352H0V464ZM448 24C448 10.744 437.254 0 424 0H152C138.746 0 128 10.744 128 24V224H448V24ZM544 160H480V224C480 241.672 465.674 256 448 256H128C110.326 256 96 241.672 96 224V160H32C14.326 160 0 174.326 0 192V319.125L0.875 320H575.125L576 319.125V192C576 174.326 561.674 160 544 160Z"/></svg>

<svg xmlns="http://www.w3.org/2000/svg" viewBox="0 0 576 512"><!--! Font Awesome Pro 6.0.0-alpha3 by @fontawesome - https://fontawesome.com License - https://fontawesome.com/license (Commercial License) --><path d="M0 464C0 490.5 21.49 512 48 512h480c26.51 0 48-21.49 48-48V352H0V464zM448 24C448 10.74 437.3 0 424 0h-272C138.7 0 128 10.74 128 24V224h320V24zM544 160h-64v64c0 17.67-14.33 32-32 32H128C110.3 256 96 241.7 96 224V160H32C14.33 160 0 174.3 0 192v127.1L.875 320h574.3L576 319.1V192C576 174.3 561.7 160 544 160z"/></svg>
